Hatter-kde/actions/24/view-multiple-objects.svg

<?xml version="1.0" encoding="UTF-8"?>
<svg viewBox="0 0 24 24" xmlns="http://www.w3.org/2000/svg">
 <defs id="defs3051">
  <style id="current-color-scheme" type="text/css">.ColorScheme-Text {
        color:#363636;
      }</style>
 </defs>
 <path class="ColorScheme-Text" d="m4 5v7h10v-7h-10zm11 0v7h5v-7h-5zm-10 1h8v5h-8v-5zm-1 7v7h16v-7h-16zm1 1h14v5h-14v-5z" fill="currentColor"/>
</svg>

<svg xmlns="http://www.w3.org/2000/svg" viewBox="0 0 24 24">
  <defs id="defs3051">
    <style type="text/css" id="current-color-scheme">
      .ColorScheme-Text {
        color:#363636;
      }
      </style>
  </defs>
 <path style="fill:currentColor;fill-opacity:1;stroke:none" 
     d="M 4 5 L 4 12 L 14 12 L 14 5 L 4 5 z M 15 5 L 15 12 L 20 12 L 20 5 L 15 5 z M 5 6 L 13 6 L 13 11 L 5 11 L 5 6 z M 4 13 L 4 20 L 20 20 L 20 13 L 4 13 z M 5 14 L 19 14 L 19 19 L 5 19 L 5 14 z "
     class="ColorScheme-Text"
     />
</svg>
